X:1
T:Adieu (Harp), LMD
T:Adieu (Harp), LMD
T:The Spiritual Harp, 1868
T:Public Domain Courtesy of the Cyber Hymnal™
C:The Spiritual Harp, 1868
Z:Public Domain
Z:Courtesy of the Cyber Hymnal™
%%score ( 1 2 ) ( 3 4 )
L:1/8
Q:1/4=126
M:3/4
K:C
V:1 treble 
V:2 treble 
V:3 bass 
V:4 bass 
V:1
 [EG]2 | [EG]4 [CE]2 | [CE]4 [EG]2 | [Ec]4 ([GB][FA]) | [EG]4 [EG]2 | ([DG]2 [Fc]2) [Fd]2 | %6
 [Fd]4 [FG]2 | ([EG]2 [Gc]2) [Ge]2 | [Ge]4 [EG]2 | [EG]4 [CE]2 | [CE]4 [EG]2 | [Ec]4 ([GB][FA]) | %12
 [EG]4 [EG]2 | ([DG]2 [FB]2) [Fd]2 | [Fd]4 [Fd]2 | (d2 A2) [FB]2 | [Ec]4 [EG]2 | %17
 ([EG]2 [DF]2) [DF]2 | [B,D]4 ([CE][DF]) | ([CE]2 [FA]2) [EG]2 | [EG]4 [B,D]2 | %21
 ([B,D]2 [CE]2) [FG]2 | G4 [D^F]2 | [DG]4 [DG]2 | [DG]4 [EG]2 | [EG]4 [CE]2 | [CE]4 [EG]2 | %27
 [Ec]4 ([GB][FA]) | [EG]4 [EG]2 | ([DG]2 [FB]2) [Fd]2 | [Fd]4 [Fd]2 | (d2 A2) [FB]2 | [Ec]4 |] %33
V:2
 x2 | x6 | x6 | x6 | x6 | x6 | x6 | x6 | x6 | x6 | x6 | x6 | x6 | x6 | x6 | F4 x2 | x6 | x6 | x6 | %19
 x6 | x6 | x6 | (E2 D2) x2 | x6 | x6 | x6 | x6 | x6 | x6 | x6 | x6 | F4 x2 | x4 |] %33
V:3
 [C,C]2 | [C,C]4 [C,G,]2 | [C,G,]4 [C,G,]2 | [C,G,]4 [C,C]2 | [C,C]4 [C,C]2 | (B,2 D2) [G,,B,]2 | %6
 [G,,B,]4 [G,,B,]2 | (C2 E2) [C,C]2 | [C,C]4 [C,C]2 | [C,C]4 [C,G,]2 | [C,G,]4 [C,G,]2 | %11
 [C,G,]4 [C,C]2 | [C,C]4 [C,C]2 | (B,2 D2) [G,B,]2 | [G,B,]4 [G,B,]2 | [G,,B,]4 [G,,G,]2 | %16
 [C,G,]4 z2 | [G,,G,]6 | [G,,G,]6 | [C,,C,]6 | [C,,C,]4 G,2 | G,4 [D,G,]2 | %22
 ([C,C]2 [B,,D]2) [A,,C]2 | [G,,B,]4 [G,,B,]2 | [G,,B,]4 [C,C]2 | [C,C]4 [C,G,]2 | %26
 [C,G,]4 [C,G,]2 | [C,G,]4 [C,C]2 | [C,C]4 [C,C]2 | (B,2 D2) [G,B,]2 | [G,B,]4 [G,B,]2 | %31
 [G,,B,]4 [G,,G,]2 | [C,G,]4 |] %33
V:4
 x2 | x6 | x6 | x6 | x6 | G,,4 x2 | x6 | C,4 x2 | x6 | x6 | x6 | x6 | x6 | G,4 x2 | x6 | x6 | x6 | %17
 x6 | x6 | x6 | x4 G,2 | (F,2 E,2) x2 | x6 | x6 | x6 | x6 | x6 | x6 | x6 | G,4 x2 | x6 | x6 | x4 |] %33

